svg/l/TJ.svg

<svg width="32" height="24" viewBox="0 0 32 24" fill="none" xmlns="http://www.w3.org/2000/svg">
<g clip-path="url(#clip0_270_67556)">
<rect width="32" height="24" fill="white"/>
<path fill-rule="evenodd" clip-rule="evenodd" d="M0 0H32V24H0V0Z" fill="#F7FCFF"/>
<path fill-rule="evenodd" clip-rule="evenodd" d="M0 0V8H32V0H0Z" fill="#C51918"/>
<path fill-rule="evenodd" clip-rule="evenodd" d="M0 16V24H32V16H0Z" fill="#409100"/>
<path fill-rule="evenodd" clip-rule="evenodd" d="M16.0201 8.6298L15.429 9.04752L15.6375 8.34753L15.0636 7.9057L15.7837 7.8908L16.0201 7.20001L16.2566 7.8908L16.9767 7.9057L16.4028 8.34753L16.6113 9.04752L16.0201 8.6298ZM13.523 9.24257L12.9318 9.66028L13.1404 8.96029L12.5665 8.51846L13.2866 8.50356L13.523 7.81278L13.7595 8.50356L14.4796 8.51846L13.9056 8.96029L14.1142 9.66028L13.523 9.24257ZM10.9896 11.4986L11.5808 11.0809L12.172 11.4986L11.9635 10.7986L12.5374 10.3568L11.8173 10.3419L11.5808 9.65108L11.3444 10.3419L10.6243 10.3568L11.1982 10.7986L10.9896 11.4986ZM10.9566 13.4638L10.3654 13.8816L10.5739 13.1816L10 12.7397L10.7201 12.7248L10.9566 12.0341L11.193 12.7248L11.9131 12.7397L11.3392 13.1816L11.5477 13.8816L10.9566 13.4638ZM20.4232 13.8816L21.0144 13.4638L21.6055 13.8816L21.397 13.1816L21.9709 12.7397L21.2508 12.7248L21.0144 12.0341L20.7779 12.7248L20.0578 12.7397L20.6317 13.1816L20.4232 13.8816ZM20.2514 11.0809L19.6602 11.4986L19.8687 10.7986L19.2948 10.3568L20.0149 10.3419L20.2514 9.65108L20.4878 10.3419L21.2079 10.3568L20.634 10.7986L20.8425 11.4986L20.2514 11.0809ZM17.7471 9.66028L18.3382 9.24257L18.9294 9.66028L18.7209 8.96029L19.2948 8.51846L18.5747 8.50356L18.3382 7.81278L18.1018 8.50356L17.3817 8.51846L17.9556 8.96029L17.7471 9.66028ZM12.6674 16.7546L12.483 16.0982C13.5031 15.8222 14.6741 15.6849 15.9965 15.6849C17.3188 15.6849 18.4898 15.8222 19.5099 16.0982L19.3256 16.7546C18.3694 16.4958 17.2597 16.3658 15.9965 16.3658C14.7333 16.3658 13.6235 16.4958 12.6674 16.7546ZM13.9306 15.702C13.5236 15.7711 13.1908 15.3777 13.1908 15.3777L13.5945 15.2109C13.5817 14.931 13.7506 14.7575 13.7506 14.7575C13.8872 14.8204 14.0735 15.1641 14.0735 15.1641H14.4395C14.4395 15.1641 14.3376 15.6329 13.9306 15.702ZM18.7401 15.4458C18.7401 15.4458 18.4073 15.8392 18.0003 15.7701C17.5933 15.701 17.4913 15.2321 17.4913 15.2321H17.8573C17.8573 15.2321 18.0437 14.8884 18.1803 14.8255C18.1803 14.8255 18.3491 14.9991 18.3363 15.279L18.7401 15.4458ZM15.9454 15.5773C15.5327 15.5892 15.2579 15.1533 15.2579 15.1533L15.6809 15.0443C15.7072 14.7653 15.8986 14.6169 15.8986 14.6169C16.0251 14.6982 16.1618 15.0645 16.1618 15.0645L16.5242 15.1155C16.5242 15.1155 16.358 15.5655 15.9454 15.5773Z" fill="#FFBB00"/>
<path fill-rule="evenodd" clip-rule="evenodd" d="M15.9585 13.6987C15.9585 13.6987 15.4895 14.772 14.7509 14.855C14.0122 14.938 13.6371 14.2446 13.6371 14.2446C13.6371 14.2446 13.5887 14.9657 12.7115 15.2436C11.8342 15.5216 11.3723 14.411 11.3723 14.411C11.3723 14.411 11.829 14.8195 12.5374 14.6415C13.2457 14.4635 13.5253 13.8061 13.5253 13.8061C13.5253 13.8061 14.0495 14.4915 14.7509 14.1488C15.4523 13.8061 15.8403 13.3873 15.8403 12.9854V11.7836C15.8403 11.7836 15.6594 11.4719 15.3455 11.4719C15.0315 11.4719 14.9439 11.6929 14.9439 11.6929C14.9439 11.6929 14.8214 10.4425 15.9504 10.3653L15.9503 10.3622C15.9609 10.3625 15.9713 10.363 15.9816 10.3635C15.9919 10.363 16.0023 10.3625 16.0128 10.3622L16.0127 10.3653C17.1417 10.4425 17.0192 11.6929 17.0192 11.6929C17.0192 11.6929 16.9316 11.4719 16.6177 11.4719C16.3038 11.4719 16.1228 11.7836 16.1228 11.7836V12.9854C16.1228 13.3873 16.5109 13.8061 17.2122 14.1488C17.9136 14.4915 18.4378 13.8061 18.4378 13.8061C18.4378 13.8061 18.7174 14.4635 19.4258 14.6415C20.1341 14.8195 20.5908 14.411 20.5908 14.411C20.5908 14.411 20.1289 15.5216 19.2517 15.2436C18.3744 14.9657 18.3261 14.2446 18.3261 14.2446C18.3261 14.2446 17.9509 14.938 17.2122 14.855C16.4736 14.772 16.0046 13.6987 16.0046 13.6987L15.9816 12.2821L15.9585 13.6987ZM15.9481 10.7019C15.4273 10.7019 15.3218 11.1428 15.3218 11.1428C15.7804 11.1428 15.9481 11.3427 15.9481 11.3427C15.9481 11.3427 16.2877 11.1428 16.6295 11.1428C16.6295 11.1428 16.469 10.7019 15.9481 10.7019Z" fill="#FFBB00"/>
</g>
<defs>
<clipPath id="clip0_270_67556">
<rect width="32" height="24" fill="white"/>
</clipPath>
</defs>
</svg>

<svg width="32" height="24" fill="none" xmlns="http://www.w3.org/2000/svg">
  <mask id="a" maskUnits="userSpaceOnUse" x="0" y="0" width="32" height="24">
    <path fill="#fff" d="M0 0h32v24H0z"/>
  </mask>
  <g mask="url(#a)" fill-rule="evenodd" clip-rule="evenodd">
    <path d="M0 0h32v24H0V0z" fill="#F7FCFF"/>
    <path d="M0 0v8h32V0H0z" fill="#C51918"/>
    <path d="M0 16v8h32v-8H0z" fill="#409100"/>
    <path d="M16.02 8.63l-.591.418.208-.7-.573-.442.72-.015.236-.691.237.69.72.016-.574.442.208.7-.59-.418zm-2.497.613l-.591.417.208-.7-.574-.442.72-.014.237-.691.236.69.72.015-.573.442.208.7-.591-.417zm-2.533 2.256l.59-.418.592.418-.209-.7.574-.442-.72-.015-.236-.69-.237.69-.72.015.574.442-.208.7zm-.033 1.965l-.592.418.209-.7L10 12.74l.72-.015.237-.69.236.69.72.015-.574.442.209.7-.591-.418zm9.466.418l.591-.418.591.418-.208-.7.574-.442-.72-.015-.237-.69-.236.69-.72.015.574.442-.209.7zm-.172-2.801l-.59.418.208-.7-.574-.442.72-.015.236-.69.237.69.72.015-.574.442.209.7-.592-.418zm-2.504-1.42l.591-.418.591.417-.208-.7.574-.442-.72-.014-.237-.691-.236.69-.72.015.574.442-.209.7zm-5.08 7.094l-.184-.657c1.02-.276 2.191-.413 3.513-.413 1.323 0 2.494.137 3.514.413l-.184.657c-.957-.26-2.066-.39-3.33-.39-1.263 0-2.373.13-3.329.39zm1.264-1.053c-.407.07-.74-.324-.74-.324l.403-.167a.646.646 0 01.157-.454c.136.063.322.407.322.407h.367s-.102.469-.51.538zm4.81-.256s-.334.393-.74.324c-.408-.069-.51-.538-.51-.538h.366s.187-.344.323-.406c0 0 .17.173.156.453l.404.167zm-2.796.131c-.412.012-.687-.424-.687-.424l.423-.109a.647.647 0 01.218-.427c.126.081.263.447.263.447l.362.052s-.166.45-.579.461z" fill="#FB0"/>
    <path d="M15.959 13.699s-.47 1.073-1.208 1.156c-.739.083-1.114-.61-1.114-.61s-.048.72-.926.999c-.877.278-1.339-.833-1.339-.833s.457.409 1.165.23c.709-.178.988-.835.988-.835s.524.686 1.226.343c.701-.343 1.09-.762 1.09-1.164v-1.201s-.182-.312-.495-.312c-.315 0-.402.22-.402.22s-.123-1.25 1.006-1.327v-.003l.032.002.03-.002v.003c1.13.078 1.007 1.328 1.007 1.328s-.087-.221-.401-.221c-.314 0-.495.312-.495.312v1.201c0 .402.388.821 1.09 1.164.7.343 1.225-.343 1.225-.343s.28.658.988.836c.708.178 1.165-.231 1.165-.231s-.462 1.11-1.34.833c-.877-.278-.925-1-.925-1s-.375.694-1.114.611c-.738-.083-1.207-1.156-1.207-1.156l-.023-1.417-.023 1.417zm-.01-2.997c-.522 0-.627.44-.627.44.458 0 .626.2.626.2s.34-.2.681-.2c0 0-.16-.44-.68-.44z" fill="#FB0"/>
  </g>
</svg>
